X:072 
T:Hard Road, The
F:file ID: cre.5/072hard_r
B:CRE5.041 (An BÃÂÃÂÃÂÃÂ³thar Dian)
M:6/8
Q:160
R:jig
K:G
B|dcA GFG|AFD G2A|BGG ABc|dgf def|
dcA GFG|AFD G2A|BGG Adc|AGG G2:|
|:g|gfd def|gaf gfd|cBc dcA|GBG AFD|
gfd def|gaf gfd|cBc dcA|GFA G2:|
"final" GBd g3|]

%%%

